50+ Arkha Story _Hijab Ootd/92cc9010cd8a4ff18600dfb2afa3f46e.xmp
<x:xmpmeta xmlns:x="adobe:ns:meta/" x:xmptk="Adobe XMP Core 5.6-c140 79.160451, 2017/05/06-01:08:21        ">
 <rdf:RDF xmlns:rdf="http://www.w3.org/1999/02/22-rdf-syntax-ns#">
  <rdf:Description rdf:about=""
    xmlns:crs="http://ns.adobe.com/camera-raw-settings/1.0/"
   crs:PresetType="Normal"
   crs:Cluster=""
   crs:UUID="49BDE2A43412437BA2DAFCEF218540DD"
   crs:SupportsAmount="False"
   crs:SupportsColor="True"
   crs:SupportsMonochrome="True"
   crs:SupportsHighDynamicRange="True"
   crs:SupportsNormalDynamicRange="True"
   crs:SupportsSceneReferred="True"
   crs:SupportsOutputReferred="True"
   crs:CameraModelRestriction=""
   crs:Copyright=""
   crs:ContactInfo=""
   crs:Version="12.4"
   crs:ProcessVersion="11.0"
   crs:WhiteBalance="Custom"
   crs:IncrementalTemperature="+25"
   crs:IncrementalTint="+10"
   crs:Saturation="0"
   crs:Sharpness="9"
   crs:LuminanceSmoothing="16"
   crs:ColorNoiseReduction="40"
   crs:ShadowTint="0"
   crs:RedHue="0"
   crs:RedSaturation="0"
   crs:GreenHue="0"
   crs:GreenSaturation="0"
   crs:BlueHue="0"
   crs:BlueSaturation="0"
   crs:Vibrance="+15"
   crs:HueAdjustmentRed="-3"
   crs:HueAdjustmentOrange="-16"
   crs:HueAdjustmentYellow="-60"
   crs:HueAdjustmentGreen="-13"
   crs:HueAdjustmentAqua="-100"
   crs:HueAdjustmentBlue="-26"
   crs:HueAdjustmentPurple="-41"
   crs:HueAdjustmentMagenta="0"
   crs:SaturationAdjustmentRed="+7"
   crs:SaturationAdjustmentOrange="-5"
   crs:SaturationAdjustmentYellow="-60"
   crs:SaturationAdjustmentGreen="-100"
   crs:SaturationAdjustmentAqua="-100"
   crs:SaturationAdjustmentBlue="+6"
   crs:SaturationAdjustmentPurple="-100"
   crs:SaturationAdjustmentMagenta="0"
   crs:LuminanceAdjustmentRed="+20"
   crs:LuminanceAdjustmentOrange="+21"
   crs:LuminanceAdjustmentYellow="+31"
   crs:LuminanceAdjustmentGreen="-50"
   crs:LuminanceAdjustmentAqua="+20"
   crs:LuminanceAdjustmentBlue="-21"
   crs:LuminanceAdjustmentPurple="0"
   crs:LuminanceAdjustmentMagenta="0"
   crs:SplitToningShadowHue="206"
   crs:SplitToningShadowSaturation="1"
   crs:SplitToningHighlightHue="157"
   crs:SplitToningHighlightSaturation="10"
   crs:SplitToningBalance="-25"
   crs:ParametricShadows="0"
   crs:ParametricDarks="0"
   crs:ParametricLights="0"
   crs:ParametricHighlights="0"
   crs:ParametricShadowSplit="25"
   crs:ParametricMidtoneSplit="50"
   crs:ParametricHighlightSplit="75"
   crs:SharpenRadius="+1.3"
   crs:SharpenDetail="25"
   crs:SharpenEdgeMasking="30"
   crs:PostCropVignetteAmount="-8"
   crs:PostCropVignetteMidpoint="27"
   crs:PostCropVignetteFeather="46"
   crs:PostCropVignetteRoundness="+37"
   crs:PostCropVignetteStyle="1"
   crs:PostCropVignetteHighlightContrast="0"
   crs:GrainAmount="0"
   crs:LuminanceNoiseReductionDetail="50"
   crs:ColorNoiseReductionDetail="50"
   crs:LuminanceNoiseReductionContrast="1"
   crs:ColorNoiseReductionSmoothness="50"
   crs:AutoLateralCA="0"
   crs:Exposure2012="+0.26"
   crs:Contrast2012="-53"
   crs:Highlights2012="-70"
   crs:Shadows2012="+87"
   crs:Whites2012="-100"
   crs:Blacks2012="-25"
   crs:Clarity2012="+33"
   crs:DefringePurpleAmount="0"
   crs:DefringePurpleHueLo="30"
   crs:DefringePurpleHueHi="70"
   crs:DefringeGreenAmount="0"
   crs:DefringeGreenHueLo="40"
   crs:DefringeGreenHueHi="60"
   crs:Dehaze="+33"
   crs:Texture="0"
   crs:ConvertToGrayscale="False"
   crs:OverrideLookVignette="True"
   crs:ToneCurveName2012="Linear"
   crs:CameraProfile="Default Color"
   crs:HasSettings="True">
   <crs:Name>
    <rdf:Alt>
     <rdf:li xml:lang="x-default">Arkha Story _Ootd Hijab 2</rdf:li>
    </rdf:Alt>
   </crs:Name>
   <crs:ShortName>
    <rdf:Alt>
     <rdf:li xml:lang="x-default"/>
    </rdf:Alt>
   </crs:ShortName>
   <crs:SortName>
    <rdf:Alt>
     <rdf:li xml:lang="x-default"/>
    </rdf:Alt>
   </crs:SortName>
   <crs:Group>
    <rdf:Alt>
     <rdf:li xml:lang="x-default">50+ Preset Ootd Hijab_Arkha Story</rdf:li>
    </rdf:Alt>
   </crs:Group>
   <crs:Description>
    <rdf:Alt>
     <rdf:li xml:lang="x-default"/>
    </rdf:Alt>
   </crs:Description>
   <crs:ToneCurvePV2012>
    <rdf:Seq>
     <rdf:li>0, 0</rdf:li>
     <rdf:li>255, 255</rdf:li>
    </rdf:Seq>
   </crs:ToneCurvePV2012>
   <crs:ToneCurvePV2012Red>
    <rdf:Seq>
     <rdf:li>0, 0</rdf:li>
     <rdf:li>255, 255</rdf:li>
    </rdf:Seq>
   </crs:ToneCurvePV2012Red>
   <crs:ToneCurvePV2012Green>
    <rdf:Seq>
     <rdf:li>0, 0</rdf:li>
     <rdf:li>255, 255</rdf:li>
    </rdf:Seq>
   </crs:ToneCurvePV2012Green>
   <crs:ToneCurvePV2012Blue>
    <rdf:Seq>
     <rdf:li>0, 0</rdf:li>
     <rdf:li>255, 255</rdf:li>
    </rdf:Seq>
   </crs:ToneCurvePV2012Blue>
   <crs:Look
    crs:Name=""/>
  </rdf:Description>
 </rdf:RDF>
</x:xmpmeta>
