12f72a4fa7aa4e058b13cf091f052fab.xmp
<x:xmpmeta xmlns:x="adobe:ns:meta/" x:xmptk="Adobe XMP Core 5.6-c140 79.160451, 2017/05/06-01:08:21        ">
 <rdf:RDF xmlns:rdf="http://www.w3.org/1999/02/22-rdf-syntax-ns#">
  <rdf:Description rdf:about=""
    xmlns:crs="http://ns.adobe.com/camera-raw-settings/1.0/"
   crs:PresetType="Normal"
   crs:Cluster=""
   crs:UUID="6D45D0B1D8C44A4C8EAAB5C930ECD970"
   crs:SupportsAmount="False"
   crs:SupportsColor="True"
   crs:SupportsMonochrome="True"
   crs:SupportsHighDynamicRange="True"
   crs:SupportsNormalDynamicRange="True"
   crs:SupportsSceneReferred="True"
   crs:SupportsOutputReferred="True"
   crs:CameraModelRestriction=""
   crs:Copyright=""
   crs:ContactInfo=""
   crs:Version="12.0"
   crs:ProcessVersion="11.0"
   crs:WhiteBalance="Custom"
   crs:IncrementalTemperature="-2"
   crs:IncrementalTint="-16"
   crs:Saturation="0"
   crs:Sharpness="14"
   crs:LuminanceSmoothing="20"
   crs:ColorNoiseReduction="35"
   crs:ShadowTint="0"
   crs:RedHue="0"
   crs:RedSaturation="0"
   crs:GreenHue="0"
   crs:GreenSaturation="0"
   crs:BlueHue="0"
   crs:BlueSaturation="0"
   crs:Vibrance="0"
   crs:HueAdjustmentRed="+70"
   crs:HueAdjustmentOrange="0"
   crs:HueAdjustmentYellow="-43"
   crs:HueAdjustmentGreen="-100"
   crs:HueAdjustmentAqua="+100"
   crs:HueAdjustmentBlue="-44"
   crs:HueAdjustmentPurple="0"
   crs:HueAdjustmentMagenta="0"
   crs:SaturationAdjustmentRed="-10"
   crs:SaturationAdjustmentOrange="-18"
   crs:SaturationAdjustmentYellow="0"
   crs:SaturationAdjustmentGreen="+100"
   crs:SaturationAdjustmentAqua="-100"
   crs:SaturationAdjustmentBlue="-53"
   crs:SaturationAdjustmentPurple="-99"
   crs:SaturationAdjustmentMagenta="0"
   crs:LuminanceAdjustmentRed="+53"
   crs:LuminanceAdjustmentOrange="0"
   crs:LuminanceAdjustmentYellow="0"
   crs:LuminanceAdjustmentGreen="+20"
   crs:LuminanceAdjustmentAqua="0"
   crs:LuminanceAdjustmentBlue="0"
   crs:LuminanceAdjustmentPurple="0"
   crs:LuminanceAdjustmentMagenta="0"
   crs:SplitToningShadowHue="0"
   crs:SplitToningShadowSaturation="0"
   crs:SplitToningHighlightHue="0"
   crs:SplitToningHighlightSaturation="0"
   crs:SplitToningBalance="0"
   crs:ParametricShadows="0"
   crs:ParametricDarks="0"
   crs:ParametricLights="0"
   crs:ParametricHighlights="0"
   crs:ParametricShadowSplit="25"
   crs:ParametricMidtoneSplit="50"
   crs:ParametricHighlightSplit="75"
   crs:SharpenRadius="+1.0"
   crs:SharpenDetail="25"
   crs:SharpenEdgeMasking="0"
   crs:PostCropVignetteAmount="0"
   crs:GrainAmount="0"
   crs:LuminanceNoiseReductionDetail="50"
   crs:ColorNoiseReductionDetail="68"
   crs:LuminanceNoiseReductionContrast="0"
   crs:ColorNoiseReductionSmoothness="72"
   crs:AutoLateralCA="0"
   crs:Exposure2012="-0.30"
   crs:Contrast2012="-19"
   crs:Highlights2012="-68"
   crs:Shadows2012="+68"
   crs:Whites2012="-60"
   crs:Blacks2012="0"
   crs:Clarity2012="+8"
   crs:DefringePurpleAmount="0"
   crs:DefringePurpleHueLo="30"
   crs:DefringePurpleHueHi="70"
   crs:DefringeGreenAmount="0"
   crs:DefringeGreenHueLo="40"
   crs:DefringeGreenHueHi="60"
   crs:Dehaze="0"
   crs:Texture="+8"
   crs:OverrideLookVignette="False"
   crs:ToneCurveName2012="Custom"
   crs:HasSettings="True">
   <crs:Name>
    <rdf:Alt>
     <rdf:li xml:lang="x-default">Pink &amp; Blue ( Sekitar Tanaman )</rdf:li>
    </rdf:Alt>
   </crs:Name>
   <crs:ShortName>
    <rdf:Alt>
     <rdf:li xml:lang="x-default"/>
    </rdf:Alt>
   </crs:ShortName>
   <crs:SortName>
    <rdf:Alt>
     <rdf:li xml:lang="x-default"/>
    </rdf:Alt>
   </crs:SortName>
   <crs:Group>
    <rdf:Alt>
     <rdf:li xml:lang="x-default">Preset Jesen Zain 2020</rdf:li>
    </rdf:Alt>
   </crs:Group>
   <crs:Description>
    <rdf:Alt>
     <rdf:li xml:lang="x-default"/>
    </rdf:Alt>
   </crs:Description>
   <crs:ToneCurvePV2012>
    <rdf:Seq>
     <rdf:li>0, 0</rdf:li>
     <rdf:li>36, 24</rdf:li>
     <rdf:li>56, 64</rdf:li>
     <rdf:li>86, 98</rdf:li>
     <rdf:li>108, 122</rdf:li>
     <rdf:li>171, 169</rdf:li>
     <rdf:li>226, 218</rdf:li>
     <rdf:li>255, 228</rdf:li>
    </rdf:Seq>
   </crs:ToneCurvePV2012>
   <crs:ToneCurvePV2012Red>
    <rdf:Seq>
     <rdf:li>0, 0</rdf:li>
     <rdf:li>255, 255</rdf:li>
    </rdf:Seq>
   </crs:ToneCurvePV2012Red>
   <crs:ToneCurvePV2012Green>
    <rdf:Seq>
     <rdf:li>0, 0</rdf:li>
     <rdf:li>255, 255</rdf:li>
    </rdf:Seq>
   </crs:ToneCurvePV2012Green>
   <crs:ToneCurvePV2012Blue>
    <rdf:Seq>
     <rdf:li>0, 0</rdf:li>
     <rdf:li>255, 255</rdf:li>
    </rdf:Seq>
   </crs:ToneCurvePV2012Blue>
   <crs:Look>
    <rdf:Description
     crs:Name="TC 2Strip 3 Var. 1"
     crs:Amount="2.000000"
     crs:UUID="E7658E05F6A8BD44ABB689F24A66B3A7"
     crs:Copyright="©Sergey Zhmakin"
     crs:ContactInfo="serg.zhmakin@gmail.com"
     crs:Stubbed="true">
    <crs:SortName>
     <rdf:Alt>
      <rdf:li xml:lang="x-default">05</rdf:li>
     </rdf:Alt>
    </crs:SortName>
    <crs:Group>
     <rdf:Alt>
      <rdf:li xml:lang="x-default">Raztrend Technicolor</rdf:li>
     </rdf:Alt>
    </crs:Group>
    <crs:Description>
     <rdf:Alt>
      <rdf:li xml:lang="x-default">Technicolor 2Strip Process 3 Var. 1</rdf:li>
     </rdf:Alt>
    </crs:Description>
    </rdf:Description>
   </crs:Look>
  </rdf:Description>
 </rdf:RDF>
</x:xmpmeta>
