JZ 22.xmp
<x:xmpmeta xmlns:x="adobe:ns:meta/" x:xmptk="Adobe XMP Core 5.6-c140 79.160451, 2017/05/06-01:08:21        ">
 <rdf:RDF xmlns:rdf="http://www.w3.org/1999/02/22-rdf-syntax-ns#">
  <rdf:Description rdf:about=""
    xmlns:crs="http://ns.adobe.com/camera-raw-settings/1.0/"
   crs:PresetType="Look"
   crs:Cluster=""
   crs:UUID="EDB81BFBB6DAFD48A492CA4AE9492B38"
   crs:SupportsAmount="True"
   crs:SupportsColor="True"
   crs:SupportsMonochrome="True"
   crs:SupportsHighDynamicRange="True"
   crs:SupportsNormalDynamicRange="True"
   crs:SupportsSceneReferred="True"
   crs:SupportsOutputReferred="True"
   crs:CameraModelRestriction=""
   crs:Copyright=""
   crs:ContactInfo=""
   crs:Version="11.1"
   crs:ProcessVersion="11.0"
   crs:IncrementalTemperature="+21"
   crs:IncrementalTint="+14"
   crs:Saturation="-2"
   crs:Vibrance="+35"
   crs:HueAdjustmentYellow="-74"
   crs:HueAdjustmentGreen="-35"
   crs:HueAdjustmentBlue="-22"
   crs:SaturationAdjustmentOrange="-13"
   crs:SaturationAdjustmentYellow="-65"
   crs:SaturationAdjustmentGreen="-59"
   crs:SaturationAdjustmentBlue="-100"
   crs:SaturationAdjustmentPurple="-54"
   crs:LuminanceAdjustmentBlue="-12"
   crs:Exposure2012="+0.10"
   crs:Contrast2012="+10"
   crs:Highlights2012="-32"
   crs:Shadows2012="+10"
   crs:Whites2012="-42"
   crs:Blacks2012="-13"
   crs:Clarity2012="+19"
   crs:ConvertToGrayscale="False"
   crs:HasSettings="True">
   <crs:Name>
    <rdf:Alt>
     <rdf:li xml:lang="x-default">JZ 22</rdf:li>
    </rdf:Alt>
   </crs:Name>
   <crs:ShortName>
    <rdf:Alt>
     <rdf:li xml:lang="x-default"/>
    </rdf:Alt>
   </crs:ShortName>
   <crs:SortName>
    <rdf:Alt>
     <rdf:li xml:lang="x-default"/>
    </rdf:Alt>
   </crs:SortName>
   <crs:Group>
    <rdf:Alt>
     <rdf:li xml:lang="x-default">Jesen Zain Special</rdf:li>
    </rdf:Alt>
   </crs:Group>
   <crs:Description>
    <rdf:Alt>
     <rdf:li xml:lang="x-default"/>
    </rdf:Alt>
   </crs:Description>
  </rdf:Description>
 </rdf:RDF>
</x:xmpmeta>
