JZ FC 19.xmp
<x:xmpmeta xmlns:x="adobe:ns:meta/" x:xmptk="Adobe XMP Core 5.6-c140 79.160451, 2017/05/06-01:08:21        ">
 <rdf:RDF xmlns:rdf="http://www.w3.org/1999/02/22-rdf-syntax-ns#">
  <rdf:Description rdf:about=""
    xmlns:crs="http://ns.adobe.com/camera-raw-settings/1.0/"
   crs:PresetType="Look"
   crs:Cluster=""
   crs:UUID="84C86C4D8A033C478C2867AFB12631C9"
   crs:SupportsAmount="True"
   crs:SupportsColor="True"
   crs:SupportsMonochrome="True"
   crs:SupportsHighDynamicRange="True"
   crs:SupportsNormalDynamicRange="True"
   crs:SupportsSceneReferred="True"
   crs:SupportsOutputReferred="True"
   crs:CameraModelRestriction=""
   crs:Copyright=""
   crs:ContactInfo=""
   crs:Version="11.1"
   crs:ProcessVersion="11.0"
   crs:IncrementalTemperature="+2"
   crs:IncrementalTint="0"
   crs:HueAdjustmentYellow="-96"
   crs:HueAdjustmentGreen="+6"
   crs:HueAdjustmentBlue="-30"
   crs:SaturationAdjustmentYellow="+100"
   crs:SaturationAdjustmentGreen="-33"
   crs:SaturationAdjustmentBlue="+61"
   crs:SplitToningShadowHue="0"
   crs:SplitToningShadowSaturation="0"
   crs:SplitToningHighlightHue="24"
   crs:SplitToningHighlightSaturation="25"
   crs:SplitToningBalance="0"
   crs:Contrast2012="-10"
   crs:Highlights2012="-38"
   crs:Shadows2012="+20"
   crs:Whites2012="-34"
   crs:Blacks2012="+16"
   crs:ConvertToGrayscale="False"
   crs:HasSettings="True">
   <crs:Name>
    <rdf:Alt>
     <rdf:li xml:lang="x-default">JZ FC 19</rdf:li>
    </rdf:Alt>
   </crs:Name>
   <crs:ShortName>
    <rdf:Alt>
     <rdf:li xml:lang="x-default"/>
    </rdf:Alt>
   </crs:ShortName>
   <crs:SortName>
    <rdf:Alt>
     <rdf:li xml:lang="x-default"/>
    </rdf:Alt>
   </crs:SortName>
   <crs:Group>
    <rdf:Alt>
     <rdf:li xml:lang="x-default">Jesen Zain -  Free Color</rdf:li>
    </rdf:Alt>
   </crs:Group>
   <crs:Description>
    <rdf:Alt>
     <rdf:li xml:lang="x-default"/>
    </rdf:Alt>
   </crs:Description>
  </rdf:Description>
 </rdf:RDF>
</x:xmpmeta>
