100+ Arkha Story_Preset Premium Selebgram/c791c5f872ad452db44f0847e06d2cd3.xmp
<x:xmpmeta xmlns:x="adobe:ns:meta/" x:xmptk="Adobe XMP Core 5.6-c140 79.160451, 2017/05/06-01:08:21        ">
 <rdf:RDF xmlns:rdf="http://www.w3.org/1999/02/22-rdf-syntax-ns#">
  <rdf:Description rdf:about=""
    xmlns:crs="http://ns.adobe.com/camera-raw-settings/1.0/"
   crs:PresetType="Normal"
   crs:Cluster=""
   crs:UUID="CFF8615C51094654A7FE3C72BEA8FC64"
   crs:SupportsAmount="False"
   crs:SupportsColor="True"
   crs:SupportsMonochrome="True"
   crs:SupportsHighDynamicRange="True"
   crs:SupportsNormalDynamicRange="True"
   crs:SupportsSceneReferred="True"
   crs:SupportsOutputReferred="True"
   crs:CameraModelRestriction=""
   crs:Copyright=""
   crs:ContactInfo=""
   crs:Version="12.2"
   crs:ProcessVersion="11.0"
   crs:WhiteBalance="Custom"
   crs:IncrementalTemperature="+15"
   crs:IncrementalTint="+2"
   crs:Saturation="0"
   crs:Sharpness="8"
   crs:LuminanceSmoothing="10"
   crs:ColorNoiseReduction="10"
   crs:ShadowTint="0"
   crs:RedHue="0"
   crs:RedSaturation="0"
   crs:GreenHue="0"
   crs:GreenSaturation="0"
   crs:BlueHue="0"
   crs:BlueSaturation="0"
   crs:Vibrance="0"
   crs:HueAdjustmentRed="-36"
   crs:HueAdjustmentOrange="-8"
   crs:HueAdjustmentYellow="-84"
   crs:HueAdjustmentGreen="-100"
   crs:HueAdjustmentAqua="-31"
   crs:HueAdjustmentBlue="-18"
   crs:HueAdjustmentPurple="+89"
   crs:HueAdjustmentMagenta="-76"
   crs:SaturationAdjustmentRed="+4"
   crs:SaturationAdjustmentOrange="0"
   crs:SaturationAdjustmentYellow="-99"
   crs:SaturationAdjustmentGreen="-100"
   crs:SaturationAdjustmentAqua="-29"
   crs:SaturationAdjustmentBlue="-31"
   crs:SaturationAdjustmentPurple="+98"
   crs:SaturationAdjustmentMagenta="0"
   crs:LuminanceAdjustmentRed="-38"
   crs:LuminanceAdjustmentOrange="+20"
   crs:LuminanceAdjustmentYellow="-16"
   crs:LuminanceAdjustmentGreen="+15"
   crs:LuminanceAdjustmentAqua="-35"
   crs:LuminanceAdjustmentBlue="+4"
   crs:LuminanceAdjustmentPurple="0"
   crs:LuminanceAdjustmentMagenta="0"
   crs:SplitToningShadowHue="304"
   crs:SplitToningShadowSaturation="19"
   crs:SplitToningHighlightHue="43"
   crs:SplitToningHighlightSaturation="20"
   crs:SplitToningBalance="0"
   crs:ParametricShadows="0"
   crs:ParametricDarks="0"
   crs:ParametricLights="0"
   crs:ParametricHighlights="0"
   crs:ParametricShadowSplit="25"
   crs:ParametricMidtoneSplit="50"
   crs:ParametricHighlightSplit="75"
   crs:SharpenRadius="+0.7"
   crs:SharpenDetail="0"
   crs:SharpenEdgeMasking="0"
   crs:PostCropVignetteAmount="0"
   crs:GrainAmount="0"
   crs:LuminanceNoiseReductionDetail="50"
   crs:ColorNoiseReductionDetail="0"
   crs:LuminanceNoiseReductionContrast="6"
   crs:ColorNoiseReductionSmoothness="100"
   crs:AutoLateralCA="0"
   crs:Exposure2012="+0.08"
   crs:Contrast2012="-96"
   crs:Highlights2012="-100"
   crs:Shadows2012="+45"
   crs:Whites2012="-100"
   crs:Blacks2012="+23"
   crs:Clarity2012="0"
   crs:DefringePurpleAmount="0"
   crs:DefringePurpleHueLo="30"
   crs:DefringePurpleHueHi="70"
   crs:DefringeGreenAmount="0"
   crs:DefringeGreenHueLo="40"
   crs:DefringeGreenHueHi="60"
   crs:Dehaze="0"
   crs:Texture="0"
   crs:ConvertToGrayscale="False"
   crs:OverrideLookVignette="False"
   crs:ToneCurveName2012="Custom"
   crs:CameraProfile="Default Color"
   crs:HasSettings="True">
   <crs:Name>
    <rdf:Alt>
     <rdf:li xml:lang="x-default">VOL - 62</rdf:li>
    </rdf:Alt>
   </crs:Name>
   <crs:ShortName>
    <rdf:Alt>
     <rdf:li xml:lang="x-default"/>
    </rdf:Alt>
   </crs:ShortName>
   <crs:SortName>
    <rdf:Alt>
     <rdf:li xml:lang="x-default"/>
    </rdf:Alt>
   </crs:SortName>
   <crs:Group>
    <rdf:Alt>
     <rdf:li xml:lang="x-default">PRESET PREMIUM ( DICKYALBAR )</rdf:li>
    </rdf:Alt>
   </crs:Group>
   <crs:Description>
    <rdf:Alt>
     <rdf:li xml:lang="x-default"/>
    </rdf:Alt>
   </crs:Description>
   <crs:ToneCurvePV2012>
    <rdf:Seq>
     <rdf:li>0, 0</rdf:li>
     <rdf:li>255, 255</rdf:li>
    </rdf:Seq>
   </crs:ToneCurvePV2012>
   <crs:ToneCurvePV2012Red>
    <rdf:Seq>
     <rdf:li>0, 0</rdf:li>
     <rdf:li>115, 111</rdf:li>
     <rdf:li>195, 190</rdf:li>
     <rdf:li>255, 255</rdf:li>
    </rdf:Seq>
   </crs:ToneCurvePV2012Red>
   <crs:ToneCurvePV2012Green>
    <rdf:Seq>
     <rdf:li>0, 0</rdf:li>
     <rdf:li>60, 74</rdf:li>
     <rdf:li>102, 113</rdf:li>
     <rdf:li>170, 174</rdf:li>
     <rdf:li>255, 255</rdf:li>
    </rdf:Seq>
   </crs:ToneCurvePV2012Green>
   <crs:ToneCurvePV2012Blue>
    <rdf:Seq>
     <rdf:li>0, 0</rdf:li>
     <rdf:li>255, 255</rdf:li>
    </rdf:Seq>
   </crs:ToneCurvePV2012Blue>
   <crs:Look
    crs:Name=""/>
  </rdf:Description>
 </rdf:RDF>
</x:xmpmeta>
