50+ Arkha Story_iPhone 12/92af2138b0b24eb291824f11e4a10bd2.xmp
<x:xmpmeta xmlns:x="adobe:ns:meta/" x:xmptk="Adobe XMP Core 5.6-c140 79.160451, 2017/05/06-01:08:21        ">
 <rdf:RDF xmlns:rdf="http://www.w3.org/1999/02/22-rdf-syntax-ns#">
  <rdf:Description rdf:about=""
    xmlns:crs="http://ns.adobe.com/camera-raw-settings/1.0/"
   crs:PresetType="Normal"
   crs:Cluster=""
   crs:UUID="8C266B9E8E684E7A9169915FBF21F6E1"
   crs:SupportsAmount="False"
   crs:SupportsColor="True"
   crs:SupportsMonochrome="True"
   crs:SupportsHighDynamicRange="True"
   crs:SupportsNormalDynamicRange="True"
   crs:SupportsSceneReferred="True"
   crs:SupportsOutputReferred="True"
   crs:CameraModelRestriction=""
   crs:Copyright=""
   crs:ContactInfo=""
   crs:Version="12.4"
   crs:ProcessVersion="11.0"
   crs:WhiteBalance="As Shot"
   crs:IncrementalTemperature="0"
   crs:IncrementalTint="0"
   crs:Saturation="+15"
   crs:Sharpness="0"
   crs:LuminanceSmoothing="25"
   crs:ColorNoiseReduction="25"
   crs:ShadowTint="0"
   crs:RedHue="0"
   crs:RedSaturation="0"
   crs:GreenHue="0"
   crs:GreenSaturation="0"
   crs:BlueHue="0"
   crs:BlueSaturation="0"
   crs:Vibrance="-5"
   crs:HueAdjustmentRed="0"
   crs:HueAdjustmentOrange="-20"
   crs:HueAdjustmentYellow="+50"
   crs:HueAdjustmentGreen="-85"
   crs:HueAdjustmentAqua="0"
   crs:HueAdjustmentBlue="-23"
   crs:HueAdjustmentPurple="0"
   crs:HueAdjustmentMagenta="0"
   crs:SaturationAdjustmentRed="0"
   crs:SaturationAdjustmentOrange="+15"
   crs:SaturationAdjustmentYellow="-45"
   crs:SaturationAdjustmentGreen="-70"
   crs:SaturationAdjustmentAqua="0"
   crs:SaturationAdjustmentBlue="+25"
   crs:SaturationAdjustmentPurple="0"
   crs:SaturationAdjustmentMagenta="0"
   crs:LuminanceAdjustmentRed="0"
   crs:LuminanceAdjustmentOrange="+20"
   crs:LuminanceAdjustmentYellow="+10"
   crs:LuminanceAdjustmentGreen="+28"
   crs:LuminanceAdjustmentAqua="0"
   crs:LuminanceAdjustmentBlue="-35"
   crs:LuminanceAdjustmentPurple="0"
   crs:LuminanceAdjustmentMagenta="0"
   crs:SplitToningShadowHue="0"
   crs:SplitToningShadowSaturation="0"
   crs:SplitToningHighlightHue="0"
   crs:SplitToningHighlightSaturation="0"
   crs:SplitToningBalance="0"
   crs:ParametricShadows="0"
   crs:ParametricDarks="0"
   crs:ParametricLights="0"
   crs:ParametricHighlights="0"
   crs:ParametricShadowSplit="25"
   crs:ParametricMidtoneSplit="50"
   crs:ParametricHighlightSplit="75"
   crs:SharpenRadius="+1.0"
   crs:SharpenDetail="25"
   crs:SharpenEdgeMasking="2"
   crs:PostCropVignetteAmount="0"
   crs:GrainAmount="0"
   crs:LuminanceNoiseReductionDetail="50"
   crs:ColorNoiseReductionDetail="50"
   crs:LuminanceNoiseReductionContrast="0"
   crs:ColorNoiseReductionSmoothness="100"
   crs:AutoLateralCA="0"
   crs:Exposure2012="+0.50"
   crs:Contrast2012="-55"
   crs:Highlights2012="-100"
   crs:Shadows2012="+34"
   crs:Whites2012="-30"
   crs:Blacks2012="+14"
   crs:Clarity2012="+20"
   crs:DefringePurpleAmount="0"
   crs:DefringePurpleHueLo="30"
   crs:DefringePurpleHueHi="70"
   crs:DefringeGreenAmount="0"
   crs:DefringeGreenHueLo="40"
   crs:DefringeGreenHueHi="60"
   crs:Dehaze="0"
   crs:Texture="0"
   crs:ConvertToGrayscale="False"
   crs:OverrideLookVignette="False"
   crs:ToneCurveName2012="Linear"
   crs:CameraProfile="Default Color"
   crs:HasSettings="True">
   <crs:Name>
    <rdf:Alt>
     <rdf:li xml:lang="x-default">Arkha Story_Iphone 12</rdf:li>
    </rdf:Alt>
   </crs:Name>
   <crs:ShortName>
    <rdf:Alt>
     <rdf:li xml:lang="x-default"/>
    </rdf:Alt>
   </crs:ShortName>
   <crs:SortName>
    <rdf:Alt>
     <rdf:li xml:lang="x-default"/>
    </rdf:Alt>
   </crs:SortName>
   <crs:Group>
    <rdf:Alt>
     <rdf:li xml:lang="x-default">50+ Arkha Story_Iphone 12</rdf:li>
    </rdf:Alt>
   </crs:Group>
   <crs:Description>
    <rdf:Alt>
     <rdf:li xml:lang="x-default"/>
    </rdf:Alt>
   </crs:Description>
   <crs:ToneCurvePV2012>
    <rdf:Seq>
     <rdf:li>0, 0</rdf:li>
     <rdf:li>255, 255</rdf:li>
    </rdf:Seq>
   </crs:ToneCurvePV2012>
   <crs:ToneCurvePV2012Red>
    <rdf:Seq>
     <rdf:li>0, 0</rdf:li>
     <rdf:li>255, 255</rdf:li>
    </rdf:Seq>
   </crs:ToneCurvePV2012Red>
   <crs:ToneCurvePV2012Green>
    <rdf:Seq>
     <rdf:li>0, 0</rdf:li>
     <rdf:li>255, 255</rdf:li>
    </rdf:Seq>
   </crs:ToneCurvePV2012Green>
   <crs:ToneCurvePV2012Blue>
    <rdf:Seq>
     <rdf:li>0, 0</rdf:li>
     <rdf:li>255, 255</rdf:li>
    </rdf:Seq>
   </crs:ToneCurvePV2012Blue>
   <crs:Look
    crs:Name=""/>
  </rdf:Description>
 </rdf:RDF>
</x:xmpmeta>
