Preset Lightroom - Arkha Story/Arkha Story - Preset Studio 1.xmp
<x:xmpmeta xmlns:x="adobe:ns:meta/" x:xmptk="Adobe XMP Core 5.6-c140 79.160451, 2017/05/06-01:08:21        ">
 <rdf:RDF xmlns:rdf="http://www.w3.org/1999/02/22-rdf-syntax-ns#">
  <rdf:Description rdf:about=""
    xmlns:crs="http://ns.adobe.com/camera-raw-settings/1.0/"
   crs:PresetType="Normal"
   crs:Cluster=""
   crs:UUID="3AD7F8551F0C4EE5A8AFD10EE4D99F48"
   crs:SupportsAmount="False"
   crs:SupportsColor="True"
   crs:SupportsMonochrome="True"
   crs:SupportsHighDynamicRange="True"
   crs:SupportsNormalDynamicRange="True"
   crs:SupportsSceneReferred="True"
   crs:SupportsOutputReferred="True"
   crs:CameraModelRestriction=""
   crs:Copyright=""
   crs:ContactInfo=""
   crs:Version="12.4"
   crs:ProcessVersion="11.0"
   crs:WhiteBalance="Custom"
   crs:IncrementalTemperature="-4"
   crs:IncrementalTint="-8"
   crs:Saturation="-34"
   crs:Sharpness="20"
   crs:LuminanceSmoothing="25"
   crs:ColorNoiseReduction="25"
   crs:ShadowTint="-2"
   crs:RedHue="+30"
   crs:RedSaturation="+40"
   crs:GreenHue="+70"
   crs:GreenSaturation="-10"
   crs:BlueHue="0"
   crs:BlueSaturation="+100"
   crs:Vibrance="+2"
   crs:HueAdjustmentRed="-10"
   crs:HueAdjustmentOrange="0"
   crs:HueAdjustmentYellow="0"
   crs:HueAdjustmentGreen="0"
   crs:HueAdjustmentAqua="+24"
   crs:HueAdjustmentBlue="-4"
   crs:HueAdjustmentPurple="-15"
   crs:HueAdjustmentMagenta="+20"
   crs:SaturationAdjustmentRed="-10"
   crs:SaturationAdjustmentOrange="0"
   crs:SaturationAdjustmentYellow="+6"
   crs:SaturationAdjustmentGreen="-28"
   crs:SaturationAdjustmentAqua="-24"
   crs:SaturationAdjustmentBlue="-8"
   crs:SaturationAdjustmentPurple="-35"
   crs:SaturationAdjustmentMagenta="-30"
   crs:LuminanceAdjustmentRed="0"
   crs:LuminanceAdjustmentOrange="+10"
   crs:LuminanceAdjustmentYellow="-2"
   crs:LuminanceAdjustmentGreen="-18"
   crs:LuminanceAdjustmentAqua="-10"
   crs:LuminanceAdjustmentBlue="+10"
   crs:LuminanceAdjustmentPurple="+30"
   crs:LuminanceAdjustmentMagenta="+27"
   crs:SplitToningShadowHue="0"
   crs:SplitToningShadowSaturation="0"
   crs:SplitToningHighlightHue="211"
   crs:SplitToningHighlightSaturation="12"
   crs:SplitToningBalance="0"
   crs:ParametricShadows="-7"
   crs:ParametricDarks="+10"
   crs:ParametricLights="+2"
   crs:ParametricHighlights="0"
   crs:ParametricShadowSplit="25"
   crs:ParametricMidtoneSplit="50"
   crs:ParametricHighlightSplit="75"
   crs:SharpenRadius="+1.0"
   crs:SharpenDetail="25"
   crs:SharpenEdgeMasking="0"
   crs:PostCropVignetteAmount="0"
   crs:GrainAmount="0"
   crs:LuminanceNoiseReductionDetail="50"
   crs:ColorNoiseReductionDetail="50"
   crs:LuminanceNoiseReductionContrast="0"
   crs:ColorNoiseReductionSmoothness="60"
   crs:AutoLateralCA="0"
   crs:Exposure2012="-0.40"
   crs:Contrast2012="-20"
   crs:Highlights2012="-62"
   crs:Shadows2012="+14"
   crs:Whites2012="+4"
   crs:Blacks2012="+75"
   crs:Clarity2012="-50"
   crs:DefringePurpleAmount="0"
   crs:DefringePurpleHueLo="30"
   crs:DefringePurpleHueHi="70"
   crs:DefringeGreenAmount="0"
   crs:DefringeGreenHueLo="40"
   crs:DefringeGreenHueHi="60"
   crs:Dehaze="0"
   crs:Texture="+20"
   crs:ConvertToGrayscale="False"
   crs:OverrideLookVignette="False"
   crs:ToneCurveName2012="Custom"
   crs:CameraProfile="Default Color"
   crs:HasSettings="True">
   <crs:Name>
    <rdf:Alt>
     <rdf:li xml:lang="x-default">Arkha Story - Preset Studio 1</rdf:li>
    </rdf:Alt>
   </crs:Name>
   <crs:ShortName>
    <rdf:Alt>
     <rdf:li xml:lang="x-default"/>
    </rdf:Alt>
   </crs:ShortName>
   <crs:SortName>
    <rdf:Alt>
     <rdf:li xml:lang="x-default"/>
    </rdf:Alt>
   </crs:SortName>
   <crs:Group>
    <rdf:Alt>
     <rdf:li xml:lang="x-default">Preset Lightroom - Arkha Story </rdf:li>
    </rdf:Alt>
   </crs:Group>
   <crs:Description>
    <rdf:Alt>
     <rdf:li xml:lang="x-default"/>
    </rdf:Alt>
   </crs:Description>
   <crs:ToneCurvePV2012>
    <rdf:Seq>
     <rdf:li>0, 0</rdf:li>
     <rdf:li>25, 27</rdf:li>
     <rdf:li>127, 127</rdf:li>
     <rdf:li>192, 191</rdf:li>
     <rdf:li>255, 255</rdf:li>
    </rdf:Seq>
   </crs:ToneCurvePV2012>
   <crs:ToneCurvePV2012Red>
    <rdf:Seq>
     <rdf:li>0, 0</rdf:li>
     <rdf:li>23, 9</rdf:li>
     <rdf:li>58, 45</rdf:li>
     <rdf:li>123, 127</rdf:li>
     <rdf:li>202, 210</rdf:li>
     <rdf:li>255, 255</rdf:li>
    </rdf:Seq>
   </crs:ToneCurvePV2012Red>
   <crs:ToneCurvePV2012Green>
    <rdf:Seq>
     <rdf:li>0, 0</rdf:li>
     <rdf:li>23, 11</rdf:li>
     <rdf:li>58, 45</rdf:li>
     <rdf:li>123, 127</rdf:li>
     <rdf:li>202, 211</rdf:li>
     <rdf:li>255, 255</rdf:li>
    </rdf:Seq>
   </crs:ToneCurvePV2012Green>
   <crs:ToneCurvePV2012Blue>
    <rdf:Seq>
     <rdf:li>0, 0</rdf:li>
     <rdf:li>23, 11</rdf:li>
     <rdf:li>58, 45</rdf:li>
     <rdf:li>124, 128</rdf:li>
     <rdf:li>201, 212</rdf:li>
     <rdf:li>255, 255</rdf:li>
    </rdf:Seq>
   </crs:ToneCurvePV2012Blue>
   <crs:Look
    crs:Name=""/>
  </rdf:Description>
 </rdf:RDF>
</x:xmpmeta>
