50+ Arkha Story_Preset Wedding 2021/6880f7410122438e860038ce55e14320.xmp
<x:xmpmeta xmlns:x="adobe:ns:meta/" x:xmptk="Adobe XMP Core 5.6-c140 79.160451, 2017/05/06-01:08:21        ">
 <rdf:RDF xmlns:rdf="http://www.w3.org/1999/02/22-rdf-syntax-ns#">
  <rdf:Description rdf:about=""
    xmlns:crs="http://ns.adobe.com/camera-raw-settings/1.0/"
   crs:PresetType="Normal"
   crs:Cluster=""
   crs:UUID="313CE0C84E024ADD81353E29F58D3AE3"
   crs:SupportsAmount="False"
   crs:SupportsColor="True"
   crs:SupportsMonochrome="True"
   crs:SupportsHighDynamicRange="True"
   crs:SupportsNormalDynamicRange="True"
   crs:SupportsSceneReferred="True"
   crs:SupportsOutputReferred="True"
   crs:CameraModelRestriction=""
   crs:Copyright=""
   crs:ContactInfo=""
   crs:Version="12.4"
   crs:ProcessVersion="11.0"
   crs:WhiteBalance="Custom"
   crs:IncrementalTemperature="-1"
   crs:IncrementalTint="-5"
   crs:Saturation="-50"
   crs:Sharpness="11"
   crs:LuminanceSmoothing="0"
   crs:ColorNoiseReduction="5"
   crs:ShadowTint="-21"
   crs:RedHue="+33"
   crs:RedSaturation="-14"
   crs:GreenHue="+100"
   crs:GreenSaturation="-24"
   crs:BlueHue="0"
   crs:BlueSaturation="+26"
   crs:Vibrance="+62"
   crs:HueAdjustmentRed="-50"
   crs:HueAdjustmentOrange="-12"
   crs:HueAdjustmentYellow="-44"
   crs:HueAdjustmentGreen="-11"
   crs:HueAdjustmentAqua="-7"
   crs:HueAdjustmentBlue="-16"
   crs:HueAdjustmentPurple="+16"
   crs:HueAdjustmentMagenta="-11"
   crs:SaturationAdjustmentRed="+35"
   crs:SaturationAdjustmentOrange="+65"
   crs:SaturationAdjustmentYellow="-41"
   crs:SaturationAdjustmentGreen="-44"
   crs:SaturationAdjustmentAqua="-60"
   crs:SaturationAdjustmentBlue="-100"
   crs:SaturationAdjustmentPurple="-22"
   crs:SaturationAdjustmentMagenta="-34"
   crs:LuminanceAdjustmentRed="-20"
   crs:LuminanceAdjustmentOrange="+27"
   crs:LuminanceAdjustmentYellow="-22"
   crs:LuminanceAdjustmentGreen="-78"
   crs:LuminanceAdjustmentAqua="+3"
   crs:LuminanceAdjustmentBlue="+78"
   crs:LuminanceAdjustmentPurple="+4"
   crs:LuminanceAdjustmentMagenta="+7"
   crs:SplitToningShadowHue="0"
   crs:SplitToningShadowSaturation="0"
   crs:SplitToningHighlightHue="0"
   crs:SplitToningHighlightSaturation="0"
   crs:SplitToningBalance="0"
   crs:ParametricShadows="-30"
   crs:ParametricDarks="+20"
   crs:ParametricLights="+15"
   crs:ParametricHighlights="-5"
   crs:ParametricShadowSplit="25"
   crs:ParametricMidtoneSplit="50"
   crs:ParametricHighlightSplit="75"
   crs:SharpenRadius="+1.0"
   crs:SharpenDetail="25"
   crs:SharpenEdgeMasking="0"
   crs:PostCropVignetteAmount="0"
   crs:GrainAmount="0"
   crs:ColorNoiseReductionDetail="100"
   crs:ColorNoiseReductionSmoothness="72"
   crs:AutoLateralCA="0"
   crs:Exposure2012="-0.15"
   crs:Contrast2012="+28"
   crs:Highlights2012="-22"
   crs:Shadows2012="-34"
   crs:Whites2012="-56"
   crs:Blacks2012="+42"
   crs:Clarity2012="0"
   crs:DefringePurpleAmount="0"
   crs:DefringePurpleHueLo="30"
   crs:DefringePurpleHueHi="70"
   crs:DefringeGreenAmount="0"
   crs:DefringeGreenHueLo="40"
   crs:DefringeGreenHueHi="60"
   crs:Dehaze="0"
   crs:Texture="0"
   crs:ConvertToGrayscale="False"
   crs:OverrideLookVignette="False"
   crs:ToneCurveName2012="Custom"
   crs:CameraProfile="Default Color"
   crs:HasSettings="True">
   <crs:Name>
    <rdf:Alt>
     <rdf:li xml:lang="x-default">Arkha Story_Preset Wedding 42</rdf:li>
    </rdf:Alt>
   </crs:Name>
   <crs:ShortName>
    <rdf:Alt>
     <rdf:li xml:lang="x-default"/>
    </rdf:Alt>
   </crs:ShortName>
   <crs:SortName>
    <rdf:Alt>
     <rdf:li xml:lang="x-default"/>
    </rdf:Alt>
   </crs:SortName>
   <crs:Group>
    <rdf:Alt>
     <rdf:li xml:lang="x-default">50+ Arkha Story_Preset Wedding 2021</rdf:li>
    </rdf:Alt>
   </crs:Group>
   <crs:Description>
    <rdf:Alt>
     <rdf:li xml:lang="x-default"/>
    </rdf:Alt>
   </crs:Description>
   <crs:ToneCurvePV2012>
    <rdf:Seq>
     <rdf:li>0, 0</rdf:li>
     <rdf:li>84, 84</rdf:li>
     <rdf:li>129, 123</rdf:li>
     <rdf:li>255, 247</rdf:li>
    </rdf:Seq>
   </crs:ToneCurvePV2012>
   <crs:ToneCurvePV2012Red>
    <rdf:Seq>
     <rdf:li>0, 0</rdf:li>
     <rdf:li>255, 255</rdf:li>
    </rdf:Seq>
   </crs:ToneCurvePV2012Red>
   <crs:ToneCurvePV2012Green>
    <rdf:Seq>
     <rdf:li>0, 0</rdf:li>
     <rdf:li>255, 255</rdf:li>
    </rdf:Seq>
   </crs:ToneCurvePV2012Green>
   <crs:ToneCurvePV2012Blue>
    <rdf:Seq>
     <rdf:li>0, 0</rdf:li>
     <rdf:li>255, 255</rdf:li>
    </rdf:Seq>
   </crs:ToneCurvePV2012Blue>
   <crs:Look
    crs:Name=""/>
  </rdf:Description>
 </rdf:RDF>
</x:xmpmeta>
