Arkha_Preset Photography/b9b9aded84ed48a3bd0e1ed2e3b1f8be.xmp
<x:xmpmeta xmlns:x="adobe:ns:meta/" x:xmptk="Adobe XMP Core 5.6-c140 79.160451, 2017/05/06-01:08:21        ">
 <rdf:RDF xmlns:rdf="http://www.w3.org/1999/02/22-rdf-syntax-ns#">
  <rdf:Description rdf:about=""
    xmlns:crs="http://ns.adobe.com/camera-raw-settings/1.0/"
   crs:PresetType="Normal"
   crs:Cluster=""
   crs:UUID="D4E180D9CDEC4DE2B690761FA28DD878"
   crs:SupportsAmount="False"
   crs:SupportsColor="True"
   crs:SupportsMonochrome="True"
   crs:SupportsHighDynamicRange="True"
   crs:SupportsNormalDynamicRange="True"
   crs:SupportsSceneReferred="True"
   crs:SupportsOutputReferred="True"
   crs:CameraModelRestriction=""
   crs:Copyright=""
   crs:ContactInfo=""
   crs:Version="12.2.1"
   crs:ProcessVersion="11.0"
   crs:WhiteBalance="Custom"
   crs:IncrementalTemperature="+5"
   crs:IncrementalTint="-5"
   crs:Saturation="-30"
   crs:Sharpness="0"
   crs:LuminanceSmoothing="0"
   crs:ColorNoiseReduction="0"
   crs:ShadowTint="0"
   crs:RedHue="+47"
   crs:RedSaturation="-24"
   crs:GreenHue="+22"
   crs:GreenSaturation="0"
   crs:BlueHue="-52"
   crs:BlueSaturation="+60"
   crs:Vibrance="-13"
   crs:HueAdjustmentRed="-7"
   crs:HueAdjustmentOrange="-6"
   crs:HueAdjustmentYellow="0"
   crs:HueAdjustmentGreen="0"
   crs:HueAdjustmentAqua="0"
   crs:HueAdjustmentBlue="0"
   crs:HueAdjustmentPurple="0"
   crs:HueAdjustmentMagenta="0"
   crs:SaturationAdjustmentRed="-4"
   crs:SaturationAdjustmentOrange="+7"
   crs:SaturationAdjustmentYellow="-6"
   crs:SaturationAdjustmentGreen="+7"
   crs:SaturationAdjustmentAqua="+1"
   crs:SaturationAdjustmentBlue="-3"
   crs:SaturationAdjustmentPurple="-2"
   crs:SaturationAdjustmentMagenta="+4"
   crs:LuminanceAdjustmentRed="0"
   crs:LuminanceAdjustmentOrange="0"
   crs:LuminanceAdjustmentYellow="0"
   crs:LuminanceAdjustmentGreen="0"
   crs:LuminanceAdjustmentAqua="0"
   crs:LuminanceAdjustmentBlue="0"
   crs:LuminanceAdjustmentPurple="0"
   crs:LuminanceAdjustmentMagenta="0"
   crs:SplitToningShadowHue="0"
   crs:SplitToningShadowSaturation="0"
   crs:SplitToningHighlightHue="0"
   crs:SplitToningHighlightSaturation="0"
   crs:SplitToningBalance="0"
   crs:ParametricShadows="0"
   crs:ParametricDarks="0"
   crs:ParametricLights="0"
   crs:ParametricHighlights="0"
   crs:ParametricShadowSplit="25"
   crs:ParametricMidtoneSplit="50"
   crs:ParametricHighlightSplit="75"
   crs:SharpenRadius="+1.0"
   crs:SharpenDetail="25"
   crs:SharpenEdgeMasking="0"
   crs:PostCropVignetteAmount="0"
   crs:GrainAmount="0"
   crs:AutoLateralCA="1"
   crs:Exposure2012="0.00"
   crs:Contrast2012="+1"
   crs:Highlights2012="-84"
   crs:Shadows2012="+40"
   crs:Whites2012="+24"
   crs:Blacks2012="+37"
   crs:Clarity2012="0"
   crs:DefringePurpleAmount="0"
   crs:DefringePurpleHueLo="30"
   crs:DefringePurpleHueHi="70"
   crs:DefringeGreenAmount="0"
   crs:DefringeGreenHueLo="40"
   crs:DefringeGreenHueHi="60"
   crs:Dehaze="0"
   crs:Texture="0"
   crs:ConvertToGrayscale="False"
   crs:OverrideLookVignette="False"
   crs:ToneCurveName2012="Custom"
   crs:CameraProfile="Default Color"
   crs:HasSettings="True">
   <crs:Name>
    <rdf:Alt>
     <rdf:li xml:lang="x-default">Arkha_Preset Photography Vol 25</rdf:li>
    </rdf:Alt>
   </crs:Name>
   <crs:ShortName>
    <rdf:Alt>
     <rdf:li xml:lang="x-default"/>
    </rdf:Alt>
   </crs:ShortName>
   <crs:SortName>
    <rdf:Alt>
     <rdf:li xml:lang="x-default"/>
    </rdf:Alt>
   </crs:SortName>
   <crs:Group>
    <rdf:Alt>
     <rdf:li xml:lang="x-default">Arkha_Preset Photography</rdf:li>
    </rdf:Alt>
   </crs:Group>
   <crs:Description>
    <rdf:Alt>
     <rdf:li xml:lang="x-default"/>
    </rdf:Alt>
   </crs:Description>
   <crs:ToneCurvePV2012>
    <rdf:Seq>
     <rdf:li>0, 20</rdf:li>
     <rdf:li>50, 47</rdf:li>
     <rdf:li>96, 83</rdf:li>
     <rdf:li>217, 188</rdf:li>
     <rdf:li>255, 218</rdf:li>
    </rdf:Seq>
   </crs:ToneCurvePV2012>
   <crs:ToneCurvePV2012Red>
    <rdf:Seq>
     <rdf:li>0, 14</rdf:li>
     <rdf:li>12, 17</rdf:li>
     <rdf:li>25, 22</rdf:li>
     <rdf:li>51, 41</rdf:li>
     <rdf:li>76, 77</rdf:li>
     <rdf:li>102, 124</rdf:li>
     <rdf:li>126, 159</rdf:li>
     <rdf:li>153, 188</rdf:li>
     <rdf:li>178, 209</rdf:li>
     <rdf:li>204, 225</rdf:li>
     <rdf:li>229, 237</rdf:li>
     <rdf:li>255, 249</rdf:li>
    </rdf:Seq>
   </crs:ToneCurvePV2012Red>
   <crs:ToneCurvePV2012Green>
    <rdf:Seq>
     <rdf:li>0, 18</rdf:li>
     <rdf:li>12, 21</rdf:li>
     <rdf:li>25, 27</rdf:li>
     <rdf:li>51, 48</rdf:li>
     <rdf:li>76, 81</rdf:li>
     <rdf:li>102, 125</rdf:li>
     <rdf:li>126, 159</rdf:li>
     <rdf:li>153, 188</rdf:li>
     <rdf:li>178, 209</rdf:li>
     <rdf:li>204, 225</rdf:li>
     <rdf:li>229, 237</rdf:li>
     <rdf:li>255, 249</rdf:li>
    </rdf:Seq>
   </crs:ToneCurvePV2012Green>
   <crs:ToneCurvePV2012Blue>
    <rdf:Seq>
     <rdf:li>0, 28</rdf:li>
     <rdf:li>12, 32</rdf:li>
     <rdf:li>25, 39</rdf:li>
     <rdf:li>51, 61</rdf:li>
     <rdf:li>76, 93</rdf:li>
     <rdf:li>102, 132</rdf:li>
     <rdf:li>126, 163</rdf:li>
     <rdf:li>153, 191</rdf:li>
     <rdf:li>178, 211</rdf:li>
     <rdf:li>204, 227</rdf:li>
     <rdf:li>229, 237</rdf:li>
     <rdf:li>255, 249</rdf:li>
    </rdf:Seq>
   </crs:ToneCurvePV2012Blue>
   <crs:Look
    crs:Name=""/>
  </rdf:Description>
 </rdf:RDF>
</x:xmpmeta>
