50+ Arkha Story_Preset Retro/8d68ad6dc0374e199ffb1f4dfbd257c3.xmp
<x:xmpmeta xmlns:x="adobe:ns:meta/" x:xmptk="Adobe XMP Core 5.6-c140 79.160451, 2017/05/06-01:08:21        ">
 <rdf:RDF xmlns:rdf="http://www.w3.org/1999/02/22-rdf-syntax-ns#">
  <rdf:Description rdf:about=""
    xmlns:crs="http://ns.adobe.com/camera-raw-settings/1.0/"
   crs:PresetType="Normal"
   crs:Cluster=""
   crs:UUID="F1380D3CA77A48508F737C1B97495952"
   crs:SupportsAmount="False"
   crs:SupportsColor="True"
   crs:SupportsMonochrome="True"
   crs:SupportsHighDynamicRange="True"
   crs:SupportsNormalDynamicRange="True"
   crs:SupportsSceneReferred="True"
   crs:SupportsOutputReferred="True"
   crs:CameraModelRestriction=""
   crs:Copyright=""
   crs:ContactInfo=""
   crs:Version="12.4"
   crs:ProcessVersion="11.0"
   crs:WhiteBalance="Custom"
   crs:IncrementalTemperature="+9"
   crs:IncrementalTint="+16"
   crs:Saturation="-16"
   crs:Sharpness="22"
   crs:LuminanceSmoothing="17"
   crs:ColorNoiseReduction="18"
   crs:ShadowTint="0"
   crs:RedHue="0"
   crs:RedSaturation="0"
   crs:GreenHue="0"
   crs:GreenSaturation="0"
   crs:BlueHue="0"
   crs:BlueSaturation="0"
   crs:Vibrance="+11"
   crs:HueAdjustmentRed="0"
   crs:HueAdjustmentOrange="0"
   crs:HueAdjustmentYellow="0"
   crs:HueAdjustmentGreen="-20"
   crs:HueAdjustmentAqua="0"
   crs:HueAdjustmentBlue="-36"
   crs:HueAdjustmentPurple="0"
   crs:HueAdjustmentMagenta="+87"
   crs:SaturationAdjustmentRed="+43"
   crs:SaturationAdjustmentOrange="-14"
   crs:SaturationAdjustmentYellow="+3"
   crs:SaturationAdjustmentGreen="-30"
   crs:SaturationAdjustmentAqua="-100"
   crs:SaturationAdjustmentBlue="-100"
   crs:SaturationAdjustmentPurple="-19"
   crs:SaturationAdjustmentMagenta="0"
   crs:LuminanceAdjustmentRed="+14"
   crs:LuminanceAdjustmentOrange="+15"
   crs:LuminanceAdjustmentYellow="-11"
   crs:LuminanceAdjustmentGreen="-65"
   crs:LuminanceAdjustmentAqua="-53"
   crs:LuminanceAdjustmentBlue="-41"
   crs:LuminanceAdjustmentPurple="-36"
   crs:LuminanceAdjustmentMagenta="+10"
   crs:SplitToningShadowHue="0"
   crs:SplitToningShadowSaturation="0"
   crs:SplitToningHighlightHue="0"
   crs:SplitToningHighlightSaturation="0"
   crs:SplitToningBalance="0"
   crs:ParametricShadows="0"
   crs:ParametricDarks="0"
   crs:ParametricLights="0"
   crs:ParametricHighlights="0"
   crs:ParametricShadowSplit="25"
   crs:ParametricMidtoneSplit="50"
   crs:ParametricHighlightSplit="75"
   crs:SharpenRadius="+1.0"
   crs:SharpenDetail="38"
   crs:SharpenEdgeMasking="0"
   crs:PostCropVignetteAmount="-30"
   crs:PostCropVignetteMidpoint="30"
   crs:PostCropVignetteFeather="96"
   crs:PostCropVignetteRoundness="0"
   crs:PostCropVignetteStyle="1"
   crs:PostCropVignetteHighlightContrast="0"
   crs:GrainAmount="0"
   crs:LuminanceNoiseReductionDetail="50"
   crs:ColorNoiseReductionDetail="50"
   crs:LuminanceNoiseReductionContrast="0"
   crs:ColorNoiseReductionSmoothness="50"
   crs:AutoLateralCA="0"
   crs:Exposure2012="-0.62"
   crs:Contrast2012="+22"
   crs:Highlights2012="-56"
   crs:Shadows2012="+57"
   crs:Whites2012="-100"
   crs:Blacks2012="-36"
   crs:Clarity2012="-19"
   crs:DefringePurpleAmount="0"
   crs:DefringePurpleHueLo="30"
   crs:DefringePurpleHueHi="70"
   crs:DefringeGreenAmount="0"
   crs:DefringeGreenHueLo="40"
   crs:DefringeGreenHueHi="60"
   crs:Dehaze="0"
   crs:Texture="+32"
   crs:OverrideLookVignette="True"
   crs:ToneCurveName2012="Custom"
   crs:HasSettings="True">
   <crs:Name>
    <rdf:Alt>
     <rdf:li xml:lang="x-default">Arkha Story_Preset Retro 23</rdf:li>
    </rdf:Alt>
   </crs:Name>
   <crs:ShortName>
    <rdf:Alt>
     <rdf:li xml:lang="x-default"/>
    </rdf:Alt>
   </crs:ShortName>
   <crs:SortName>
    <rdf:Alt>
     <rdf:li xml:lang="x-default"/>
    </rdf:Alt>
   </crs:SortName>
   <crs:Group>
    <rdf:Alt>
     <rdf:li xml:lang="x-default">50+ Arkha Story_Preset Retro </rdf:li>
    </rdf:Alt>
   </crs:Group>
   <crs:Description>
    <rdf:Alt>
     <rdf:li xml:lang="x-default"/>
    </rdf:Alt>
   </crs:Description>
   <crs:ToneCurvePV2012>
    <rdf:Seq>
     <rdf:li>0, 0</rdf:li>
     <rdf:li>78, 97</rdf:li>
     <rdf:li>148, 170</rdf:li>
     <rdf:li>226, 255</rdf:li>
    </rdf:Seq>
   </crs:ToneCurvePV2012>
   <crs:ToneCurvePV2012Red>
    <rdf:Seq>
     <rdf:li>0, 0</rdf:li>
     <rdf:li>255, 255</rdf:li>
    </rdf:Seq>
   </crs:ToneCurvePV2012Red>
   <crs:ToneCurvePV2012Green>
    <rdf:Seq>
     <rdf:li>0, 0</rdf:li>
     <rdf:li>255, 255</rdf:li>
    </rdf:Seq>
   </crs:ToneCurvePV2012Green>
   <crs:ToneCurvePV2012Blue>
    <rdf:Seq>
     <rdf:li>0, 0</rdf:li>
     <rdf:li>255, 255</rdf:li>
    </rdf:Seq>
   </crs:ToneCurvePV2012Blue>
   <crs:Look>
    <rdf:Description
     crs:Name="Vintage 09"
     crs:Amount="1.360000"
     crs:Cluster="Adobe"
     crs:UUID="EB1AC61A0F406E240637ACFFBE1D2C55"
     crs:SupportsMonochrome="false"
     crs:Copyright="© 2018 Adobe Systems, Inc."
     crs:Stubbed="true">
    <crs:Group>
     <rdf:Alt>
      <rdf:li xml:lang="x-default">Vintage</rdf:li>
     </rdf:Alt>
    </crs:Group>
    </rdf:Description>
   </crs:Look>
  </rdf:Description>
 </rdf:RDF>
</x:xmpmeta>
