Arkha_Tutorial/Arkha_Creamy_Alpenliebe.xmp
<x:xmpmeta xmlns:x="adobe:ns:meta/" x:xmptk="Adobe XMP Core 5.6-c140 79.160451, 2017/05/06-01:08:21        ">
 <rdf:RDF xmlns:rdf="http://www.w3.org/1999/02/22-rdf-syntax-ns#">
  <rdf:Description rdf:about=""
    xmlns:crs="http://ns.adobe.com/camera-raw-settings/1.0/"
   crs:PresetType="Normal"
   crs:Cluster=""
   crs:UUID="33F0E868A3744F5EBC9F5369E6BE4FCB"
   crs:SupportsAmount="False"
   crs:SupportsColor="True"
   crs:SupportsMonochrome="True"
   crs:SupportsHighDynamicRange="True"
   crs:SupportsNormalDynamicRange="True"
   crs:SupportsSceneReferred="True"
   crs:SupportsOutputReferred="True"
   crs:CameraModelRestriction=""
   crs:Copyright=""
   crs:ContactInfo=""
   crs:Version="12.2.1"
   crs:ProcessVersion="11.0"
   crs:WhiteBalance="Custom"
   crs:IncrementalTemperature="+22"
   crs:IncrementalTint="+8"
   crs:Saturation="-12"
   crs:Sharpness="20"
   crs:LuminanceSmoothing="25"
   crs:ColorNoiseReduction="40"
   crs:ShadowTint="0"
   crs:RedHue="0"
   crs:RedSaturation="0"
   crs:GreenHue="0"
   crs:GreenSaturation="0"
   crs:BlueHue="0"
   crs:BlueSaturation="0"
   crs:Vibrance="+70"
   crs:HueAdjustmentRed="+56"
   crs:HueAdjustmentOrange="-10"
   crs:HueAdjustmentYellow="-100"
   crs:HueAdjustmentGreen="-100"
   crs:HueAdjustmentAqua="0"
   crs:HueAdjustmentBlue="-80"
   crs:HueAdjustmentPurple="0"
   crs:HueAdjustmentMagenta="0"
   crs:SaturationAdjustmentRed="0"
   crs:SaturationAdjustmentOrange="-27"
   crs:SaturationAdjustmentYellow="-70"
   crs:SaturationAdjustmentGreen="-92"
   crs:SaturationAdjustmentAqua="-100"
   crs:SaturationAdjustmentBlue="-54"
   crs:SaturationAdjustmentPurple="-100"
   crs:SaturationAdjustmentMagenta="0"
   crs:LuminanceAdjustmentRed="0"
   crs:LuminanceAdjustmentOrange="0"
   crs:LuminanceAdjustmentYellow="0"
   crs:LuminanceAdjustmentGreen="0"
   crs:LuminanceAdjustmentAqua="0"
   crs:LuminanceAdjustmentBlue="-32"
   crs:LuminanceAdjustmentPurple="0"
   crs:LuminanceAdjustmentMagenta="0"
   crs:SplitToningShadowHue="225"
   crs:SplitToningShadowSaturation="8"
   crs:SplitToningHighlightHue="0"
   crs:SplitToningHighlightSaturation="0"
   crs:SplitToningBalance="0"
   crs:ParametricShadows="0"
   crs:ParametricDarks="0"
   crs:ParametricLights="0"
   crs:ParametricHighlights="0"
   crs:ParametricShadowSplit="25"
   crs:ParametricMidtoneSplit="50"
   crs:ParametricHighlightSplit="75"
   crs:SharpenRadius="+1.0"
   crs:SharpenDetail="25"
   crs:SharpenEdgeMasking="0"
   crs:PostCropVignetteAmount="0"
   crs:GrainAmount="0"
   crs:LuminanceNoiseReductionDetail="50"
   crs:ColorNoiseReductionDetail="50"
   crs:LuminanceNoiseReductionContrast="0"
   crs:ColorNoiseReductionSmoothness="60"
   crs:AutoLateralCA="0"
   crs:Exposure2012="-0.20"
   crs:Contrast2012="+34"
   crs:Highlights2012="-90"
   crs:Shadows2012="+75"
   crs:Whites2012="-100"
   crs:Blacks2012="-10"
   crs:Clarity2012="+18"
   crs:DefringePurpleAmount="0"
   crs:DefringePurpleHueLo="30"
   crs:DefringePurpleHueHi="70"
   crs:DefringeGreenAmount="0"
   crs:DefringeGreenHueLo="40"
   crs:DefringeGreenHueHi="60"
   crs:Dehaze="0"
   crs:Texture="+12"
   crs:ConvertToGrayscale="False"
   crs:OverrideLookVignette="False"
   crs:ToneCurveName2012="Custom"
   crs:CameraProfile="Default Color"
   crs:HasSettings="True">
   <crs:Name>
    <rdf:Alt>
     <rdf:li xml:lang="x-default">Arkha_Creamy Alpenliebe</rdf:li>
    </rdf:Alt>
   </crs:Name>
   <crs:ShortName>
    <rdf:Alt>
     <rdf:li xml:lang="x-default"/>
    </rdf:Alt>
   </crs:ShortName>
   <crs:SortName>
    <rdf:Alt>
     <rdf:li xml:lang="x-default"/>
    </rdf:Alt>
   </crs:SortName>
   <crs:Group>
    <rdf:Alt>
     <rdf:li xml:lang="x-default">Arhiez Preset</rdf:li>
    </rdf:Alt>
   </crs:Group>
   <crs:Description>
    <rdf:Alt>
     <rdf:li xml:lang="x-default"/>
    </rdf:Alt>
   </crs:Description>
   <crs:ToneCurvePV2012>
    <rdf:Seq>
     <rdf:li>0, 0</rdf:li>
     <rdf:li>39, 31</rdf:li>
     <rdf:li>61, 65</rdf:li>
     <rdf:li>80, 97</rdf:li>
     <rdf:li>110, 130</rdf:li>
     <rdf:li>140, 151</rdf:li>
     <rdf:li>176, 186</rdf:li>
     <rdf:li>220, 218</rdf:li>
     <rdf:li>255, 255</rdf:li>
    </rdf:Seq>
   </crs:ToneCurvePV2012>
   <crs:ToneCurvePV2012Red>
    <rdf:Seq>
     <rdf:li>0, 0</rdf:li>
     <rdf:li>255, 255</rdf:li>
    </rdf:Seq>
   </crs:ToneCurvePV2012Red>
   <crs:ToneCurvePV2012Green>
    <rdf:Seq>
     <rdf:li>0, 0</rdf:li>
     <rdf:li>255, 255</rdf:li>
    </rdf:Seq>
   </crs:ToneCurvePV2012Green>
   <crs:ToneCurvePV2012Blue>
    <rdf:Seq>
     <rdf:li>0, 0</rdf:li>
     <rdf:li>255, 255</rdf:li>
    </rdf:Seq>
   </crs:ToneCurvePV2012Blue>
   <crs:Look
    crs:Name=""/>
  </rdf:Description>
 </rdf:RDF>
</x:xmpmeta>
